X:6518
T:The Bear With a Sore Head
O:england
C:Nigel Gatherer
N:for Bracha
M:6/8
L:1/8
K:Em
E>EE G2 B|AFD AFD|E>EE G2 B|e2 f edB|d2 e dBG|E>EE G2 B|A>FD E2:|]
e>ee gee|bee gee|f>dd AdA|FAF DEF|e>ee gee|bee gee|fdB AFA|BGE E3|
e>ee gee|bee gee|f>dd AdA|FAF DEF|G>BB F>AA|E2 e g>fe|fdB AFA|BGE E3|]


